Adwaita++-Light/panel/22/mintupdate-error.svg

<svg height="22" width="22" xmlns="http://www.w3.org/2000/svg">
  <path d="m8.1719 6.7578 2.8281 2.8281 2.828-2.8281 1.414 1.4141-2.828 2.8281 2.828 2.828-1.414 1.414-2.828-2.828-2.8281 2.828-1.4141-1.414 2.8281-2.828-2.8281-2.8281zm2.8281-3.7578c-2.1481 1.9698-5.7654 3.7049-7 4 0 5.333 2.625 11.111 7 12 4.375-.889 7-6.667 7-12-1.235-.2951-4.852-2.0302-7-4z" fill="#4285f4" fill-rule="evenodd"/>
</svg>

<svg xmlns="http://www.w3.org/2000/svg" width="22" height="22" version="1.1">
 <defs>
  <style id="current-color-scheme" type="text/css">
   .ColorScheme-Text { color:#444444; } .ColorScheme-Highlight { color:#4285f4; }
  </style>
 </defs>
 <g>
  <path style="fill:currentColor;fill-rule:evenodd" class="ColorScheme-Highlight" d="M 8.1719,6.7578 11,9.5859 13.828,6.7578 15.242,8.1719 12.414,11 15.242,13.828 13.828,15.242 11,12.414 8.1719,15.242 6.7578,13.828 9.5859,11 6.7578,8.1719 8.1719,6.7578 Z M 11,3 C 8.8519,4.9698 5.2346,6.7049 4,7 4,12.333 6.625,18.111 11,19 15.375,18.111 18,12.333 18,7 16.765,6.7049 13.148,4.9698 11,3 Z"/>
 </g>
</svg>
